X:1
T:Death Is Conquered, Hallelujah!
T:Death Is Conquered, Hallelujah!
T:William Edie Marks
T:William Edie Marks, 1890
T:Public Domain Courtesy of the Cyber Hymnal™
T:Public Domain Courtesy of the Cyber Hymnal™
C:William Edie Marks
Z:Public Domain
Z:Courtesy of the Cyber Hymnal™
%%score ( 1 2 ) ( 3 4 )
L:1/8
Q:1/4=93
M:4/4
K:A
V:1 treble 
V:2 treble 
V:3 bass 
V:4 bass 
V:1
 [Ec]2 [CA]2 [CE]2 z [A,C]/[B,D]/ | [CE][CF][CG][CA] [EG]2 [DF]2 | [DF]2 [DF]2 [Fd]2 z [Fd]/[Fd]/ | %3
w: 1.~Wake and sing! Je- sus|from the grave has ris- en;|Praise His name! un- to|
w: 2.~Praise the Lord! He has|robbed death of its ter- ror,|And from us ev- ery|
w: 3.~Praise His name! He’s the|hope of our sal- va- tion;|Praise ye Him! ev- ery|
 [Ed][Ec][DB][CA] [EG]2 [DF]2 | [CE]2 [CA]2 [Ec]2 z [Ae]/[Ad]/ | [Ac][EB][EA][CE] [EG]2 [DF]2 | %6
w: us a hope is giv- en;|We, some time, will es-|cape from death’s dark pri- son;|
w: fear has gone for- ev- er;|Praise the Lord! we will|glo- ry in Him ev- er;|
w: land and ev- ery na- tion,|Join ye now in the|song of ju- bi- la- tion;|
 A>A GF EEcA | F2 [DG]2 [CA]4 ||"^Refrain" [Ee]2 [Ee]2 [Ee]2 z [CE]/[CF]/ | %9
w: Death is con- quered, hal- le- lu- jah!|Christ is ris’n.||
w: Death is con- quered, hal- le- lu- jah!|Christ is ris’n.|Sing, sing, sing! make the|
w: Death is con- quered, hal- le- lu- jah!|Christ is ris’n.||
 [CG][CA][CB][EA] [EA]2 [EG]2 | [Ge]2 [Ge]2 [Ee]2 z E/[EF]/ | [EG][EA][Ac][GB] [GB]2 A2 | %12
w: |||
w: an- thems swell out strong- er;|Ring, ring, ring! let the|bells now peal out long- er;|
w: |||
 [Ae]2 [Ae]2 [Ee]2 z [CE]/[CF]/ | [CG][CA][Ec][EB] [FA]2 [DF]2 | A>A GF EEcA | F2 [DG]2 [CA]4 |] %16
w: ||||
w: Sing, sing, sing! let the|car- ols rise for- ev- er;|Death is con- quered, hal- le- lu- jah!|Christ is ris’n.|
w: ||||
V:2
 x8 | x8 | x8 | x8 | x8 | x8 | A3/2GFEEcA x/ | F2 x6 || x8 | x8 | x7 E/ x/ | x6 A2 | x8 | x8 | %14
 A>A GF EEc x | F2 x6 |] %16
V:3
 [A,,A,]2 [A,,E,]2 [A,,E,]2 z [A,,E,]/[A,,E,]/ | [A,,A,][A,,A,][A,,A,][A,,A,] [D,A,]2 [D,A,]2 | %2
 [D,A,]2 [D,A,]2 [D,A,]2 z [D,A,]/[D,A,]/ | [E,G,][E,G,][E,G,][E,A,] [E,B,]2 [E,G,]2 | %4
 [A,,A,]2 [A,,A,]2 [A,,A,]2 z [A,C]/[A,D]/ | [A,E][B,D][B,D]A, [D,A,]2 [D,A,]2 | %6
 A,>A, G,F, E,E,CA, | [D,B,]2 [E,B,]2 [A,,A,]4 || [A,C]2 [A,C]2 [A,C]2 z [A,,A,]/[A,,A,]/ | %9
 [A,,A,][A,,A,][A,,A,][C,A,] [E,C]2 [E,B,]2 | [E,B,]2 [E,B,]2 [E,G,]2 z [E,G,]/[E,A,]/ | %11
 [E,B,][E,C][E,E][E,D] [E,D]2 [A,,C]2 | [A,C]2 [A,C]2 [A,C]2 z [A,,C]/[A,,A,]/ | %13
 [A,,A,][A,,A,][A,,A,][C,A,] [D,A,]2 [D,A,]2 | A,>A, G,F, E,E,CA, | [D,B,]2 [E,B,]2 [A,,A,]4 |] %16
V:4
 x8 | x8 | x8 | x8 | x8 | x3 A, x4 | A,>A, G,F, E,E,CA, | x8 || x8 | x8 | x8 | x8 | x8 | x8 | %14
 A,>A, G,F, E,E,CA, | x8 |] %16

